icons/code-box-fill.svg

<svg viewBox="0 0 24 24" fill="currentColor" xmlns="http://www.w3.org/2000/svg"><path d="M3 3H21C21.5523 3 22 3.44772 22 4V20C22 20.5523 21.5523 21 21 21H3C2.44772 21 2 20.5523 2 20V4C2 3.44772 2.44772 3 3 3ZM16.4645 15.5355L20 12L16.4645 8.46447L15.0503 9.87868L17.1716 12L15.0503 14.1213L16.4645 15.5355ZM6.82843 12L8.94975 9.87868L7.53553 8.46447L4 12L7.53553 15.5355L8.94975 14.1213L6.82843 12ZM11.2443 17L14.884 7H12.7557L9.11597 17H11.2443Z"/></svg>

<svg xmlns="http://www.w3.org/2000/svg" viewBox="0 0 24 24">
    <g>
        <path fill="none" d="M0 0h24v24H0z"/>
        <path d="M3 3h18a1 1 0 0 1 1 1v16a1 1 0 0 1-1 1H3a1 1 0 0 1-1-1V4a1 1 0 0 1 1-1zm13.464 12.536L20 12l-3.536-3.536L15.05 9.88 17.172 12l-2.122 2.121 1.414 1.415zM6.828 12L8.95 9.879 7.536 8.464 4 12l3.536 3.536L8.95 14.12 6.828 12zm4.416 5l3.64-10h-2.128l-3.64 10h2.128z"/>
    </g>
</svg>
